icons/badge/x/circle.svg

<svg width="32" height="32" viewBox="0 0 32 32" fill="none" xmlns="http://www.w3.org/2000/svg">
<path fill-rule="evenodd" clip-rule="evenodd" d="M16 4.00003C9.37258 4.00003 4 9.37261 4 16C4 22.6274 9.37258 28 16 28C22.6274 28 28 22.6274 28 16C28 9.37261 22.6274 4.00003 16 4.00003ZM2 16C2 8.26804 8.26801 2.00003 16 2.00003C23.732 2.00003 30 8.26804 30 16C30 23.732 23.732 30 16 30C8.26801 30 2 23.732 2 16ZM17.4142 16L21.7071 11.7071L20.2929 10.2929L16 14.5858L11.7071 10.2929L10.2929 11.7071L14.5858 16L10.2929 20.2929L11.7071 21.7071L16 17.4142L20.2929 21.7071L21.7071 20.2929L17.4142 16Z" fill="black"/>
</svg>

<svg width="32" height="32" viewBox="0 0 32 32" xmlns="http://www.w3.org/2000/svg">
    <path fill-rule="evenodd" d="M16 4C9.373 4 4 9.373 4 16s5.373 12 12 12 12-5.373 12-12S22.627 4 16 4zM2 16C2 8.268 8.268 2 16 2s14 6.268 14 14-6.268 14-14 14S2 23.732 2 16zm15.414 0l4.293-4.293-1.414-1.414L16 14.586l-4.293-4.293-1.414 1.414L14.586 16l-4.293 4.293 1.414 1.414L16 17.414l4.293 4.293 1.414-1.414L17.414 16z"/>
</svg>
